X: 4307
T: The TANK
%R: hornpipe, reel
B: James Kerr "Merry Melodies" v.4 p.32 #307
Z: 2016 John Chambers <jc:trillian.mit.edu>
M: C|
L: 1/8
K: Bb
|:\
B2b2 G2g2 | (fg)fe dcB2 |\
def2 efg2 | f2a2 b2z2 ::\
B2Bd (.f2.f2) | geec cAAF |
B2Bd (.f2.f2) | gecA B2F2 |\
B2Bd (.f2.f2) | geec cAAF |\
Bcde fgab | gecA B2z2 :|

%%sep 1 1 500
%%sep 1 1 500

